X: '1'
T:The Last Session
C:Gabrielle Létourneau
N:For a lifelong friendship between us, Svante Kvarnström, Saga Perron, Robin Beech and me
N:© Gabrielle Létourneau
Z:gabie.letourneau@hotmail.ca
R:reel
M:4/4
L:1/8
K:D
e2 |: f3a fe dc | BA FA B2A2 | f3a fe dc | BA Bc d3 e |
f3a fe dc | BA FA BA FD | E3F GF GB |1 AG FE D2e2 :|2 AG FE D2A2 ||
|: B3c dc BA | BA FA GF ED | B2 Bc dc BA | BA eA fA eA |
B3c dc BA | BA FA GF ED | E2 EF GF GB |1 AG FE D2A2 :|2 AG FE D2 e2 ||
